public/images/yt.svg

<svg viewBox="0 0 546.1 384" xmlns="http://www.w3.org/2000/svg"><path d="m534.7 60.1c-6.3-23.7-24.8-42.3-48.3-48.6-42.6-11.5-213.3-11.5-213.3-11.5s-170.8 0-213.4 11.5c-23.5 6.3-42 24.9-48.3 48.6-11.4 42.8-11.4 132.3-11.4 132.3s0 89.4 11.4 132.3c6.3 23.6 24.8 41.5 48.3 47.8 42.6 11.5 213.4 11.5 213.4 11.5s170.8 0 213.4-11.5c23.5-6.3 42-24.2 48.3-47.8 11.4-42.9 11.4-132.3 11.4-132.3s-.1-89.5-11.5-132.3zm-317.5 213.5v-162.4l142.8 81.2z"/></svg>

<?xml version="1.0" encoding="utf-8"?>
<!-- Generator: Adobe Illustrator 21.0.2, SVG Export Plug-In . SVG Version: 6.00 Build 0)  -->
<svg version="1.2" baseProfile="tiny" id="Layer_1" focusable="false"
	 xmlns="http://www.w3.org/2000/svg" xmlns:xlink="http://www.w3.org/1999/xlink" x="0px" y="0px" viewBox="0 0 546.1 384"
	 xml:space="preserve">
<path d="M534.7,60.1c-6.3-23.7-24.8-42.3-48.3-48.6C443.8,0,273.1,0,273.1,0S102.3,0,59.7,11.5c-23.5,6.3-42,24.9-48.3,48.6
	C0,102.9,0,192.4,0,192.4s0,89.4,11.4,132.3c6.3,23.6,24.8,41.5,48.3,47.8C102.3,384,273.1,384,273.1,384s170.8,0,213.4-11.5
	c23.5-6.3,42-24.2,48.3-47.8c11.4-42.9,11.4-132.3,11.4-132.3S546.1,102.9,534.7,60.1z M217.2,273.6V111.2L360,192.4L217.2,273.6
	L217.2,273.6z"/>
</svg>
